X:830
T:Tommy Peoples'
R:reel
D:Altan: Altan
Z:id:hn-reel-830
M:C|
L:1/8
K:D
~A2FA ABdf|edfe fddB|~A2FA ABdB|1 AFEG FDDB:|2 AFEG FDDE||
|:FAdA BAdA|(3Bcd ed cAAG|(3FGA dA BAdB|1 AFEG FDDE:|2 AFEG FDDB||
